x-pack/solutions/observability/plugins/apm/public/components/shared/span_icon/icons/dynamo_db.svg

<svg width="18" height="18" viewBox="0 0 18 18" fill="none" xmlns="http://www.w3.org/2000/svg">
<g clip-path="url(#clip0_1421_84659)">
<path d="M18 0H0V18H18V0Z" fill="url(#paint0_linear_1421_84659)"/>
<path fill-rule="evenodd" clip-rule="evenodd" d="M11.7299 13.9583V13.9579V12.6689C11.043 13.2573 9.61762 13.645 7.88767 13.645C6.15639 13.645 4.73105 13.2568 4.04413 12.668V13.9561H4.04457C4.04457 14.5913 5.62266 15.2991 7.88767 15.2991C10.1496 15.2991 11.7263 14.5926 11.7299 13.9583ZM11.7303 10.2799L12.1744 10.2772V10.2799C12.1744 10.5608 12.034 10.8227 11.7667 11.0635C12.0935 11.3574 12.1744 11.646 12.1744 11.8511C12.1744 11.8524 12.1739 11.8538 12.1739 11.8547V13.9561H12.1744C12.1744 14.9786 10.3316 15.75 7.88767 15.75C5.45615 15.75 3.62141 14.9867 3.60232 13.9718C3.60232 13.9678 3.6001 13.9646 3.6001 13.9606V11.8502C3.6001 11.8488 3.60099 11.8479 3.60099 11.8466C3.60187 11.6424 3.68313 11.3565 4.00639 11.0648C3.68402 10.7722 3.60232 10.4873 3.60054 10.2849C3.60054 10.284 3.6001 10.2831 3.6001 10.2822V8.17179C3.6001 8.17044 3.60099 8.16909 3.60099 8.16818C3.60187 7.9635 3.68358 7.67767 4.00683 7.38643C3.68402 7.09338 3.60232 6.8089 3.60054 6.60602C3.60054 6.60512 3.6001 6.60422 3.6001 6.60377V4.49294C3.6001 4.49069 3.60143 4.48933 3.60143 4.48708C3.61031 3.46773 5.44905 2.69995 7.88767 2.69995C9.06125 2.69995 10.1891 2.89336 10.9808 3.22969L10.8094 3.64581C10.0701 3.33113 9.00486 3.15079 7.88767 3.15079C5.62266 3.15079 4.04457 3.85861 4.04457 4.49384C4.04457 5.12953 5.62266 5.83734 7.88767 5.83734C7.94984 5.83779 8.00845 5.83734 8.06884 5.83464L8.08704 6.28503C8.02044 6.28818 7.95383 6.28818 7.88767 6.28818C6.15639 6.28818 4.73105 5.90001 4.04413 5.31076V6.59881H4.04457V6.60422C4.04679 6.84948 4.28879 7.06318 4.49083 7.19888C5.09737 7.59922 6.18392 7.87243 7.3948 7.92879L7.37393 8.37918C6.1484 8.32237 5.07428 8.05863 4.38337 7.65513C4.21064 7.78813 4.04457 7.96666 4.04457 8.17269C4.04457 8.80792 5.62266 9.51574 7.88767 9.51574C8.11102 9.51574 8.32904 9.50808 8.54173 9.49275L8.57415 9.94224C8.3508 9.95847 8.12123 9.96658 7.88767 9.96658C6.15639 9.96658 4.73105 9.57886 4.04413 8.98961V10.2772H4.04457C4.04679 10.5283 4.28835 10.742 4.49083 10.8773C5.18396 11.3353 6.48586 11.6203 7.88767 11.6203H7.98625V12.0711H7.88767C6.46322 12.0711 5.17419 11.7956 4.38381 11.3326C4.21109 11.4656 4.04457 11.6446 4.04457 11.8511C4.04457 12.4863 5.62266 13.1941 7.88767 13.1941C10.1487 13.1941 11.725 12.4886 11.7299 11.8538V11.8502V11.8497C11.7294 11.6451 11.5647 11.467 11.3929 11.3344C11.2832 11.3989 11.1655 11.4607 11.0323 11.5175L10.8605 11.1022C11.0234 11.0324 11.1655 10.9571 11.2827 10.8777C11.487 10.7398 11.7303 10.5238 11.7303 10.2799ZM14.1099 6.51991H12.6326C12.5611 6.51991 12.4941 6.48475 12.4523 6.42569C12.4106 6.36663 12.3995 6.29089 12.4226 6.22191L13.0771 4.26572H10.1394L8.73488 6.97075H10.1611C10.2304 6.97075 10.2957 7.00367 10.3374 7.05957C10.3796 7.11502 10.3933 7.18761 10.3751 7.25568L9.15227 11.8042L14.1099 6.51991ZM14.7893 6.45003L8.86765 12.7618C8.82414 12.8078 8.76552 12.8317 8.70647 12.8317C8.66917 12.8317 8.63143 12.8222 8.59724 12.8028C8.50887 12.7519 8.46536 12.6464 8.49244 12.5467L9.87072 7.42159H8.36678C8.28908 7.42159 8.2167 7.38012 8.17674 7.31249C8.13633 7.24486 8.13366 7.16101 8.17008 7.09113L9.809 3.93525C9.84763 3.86131 9.92311 3.81488 10.0053 3.81488H13.387C13.4589 3.81488 13.526 3.85004 13.5677 3.9091C13.609 3.96816 13.6206 4.0439 13.5975 4.11288L12.9425 6.06907H14.6281C14.7173 6.06907 14.7973 6.12272 14.8323 6.20568C14.867 6.28863 14.8501 6.38466 14.7893 6.45003ZM4.3776 13.9682C4.63469 14.1179 4.94951 14.25 5.31317 14.36L5.43972 13.9281C5.10936 13.828 4.82651 13.7099 4.59873 13.5774L4.3776 13.9682ZM5.31317 10.7141L5.43972 10.2822C5.11025 10.1825 4.8274 10.0644 4.59873 9.93097L4.3776 10.3223C4.63558 10.4729 4.9504 10.6045 5.31317 10.7141ZM4.3776 6.6759L4.59873 6.28503C4.82607 6.41757 5.10936 6.53614 5.43972 6.63623L5.31317 7.06814C4.94907 6.95813 4.63469 6.82603 4.3776 6.6759Z" fill="white"/>
</g>
<defs>
<linearGradient id="paint0_linear_1421_84659" x1="0" y1="18" x2="18" y2="0" gradientUnits="userSpaceOnUse">
<stop stop-color="#2E27AD"/>
<stop offset="1" stop-color="#527FFF"/>
</linearGradient>
<clipPath id="clip0_1421_84659">
<rect width="18" height="18" fill="white"/>
</clipPath>
</defs>
</svg>

<svg xmlns="http://www.w3.org/2000/svg" width="18" height="18" fill="none"><g clip-path="url(#a)"><path fill="url(#b)" d="M18 0H0v18h18z"/><path fill="#fff" fill-rule="evenodd" d="M11.73 13.958v-1.29c-.687.59-2.112.977-3.842.977-1.732 0-3.157-.388-3.844-.977v1.288c0 .635 1.579 1.343 3.844 1.343 2.262 0 3.838-.706 3.842-1.34m0-3.678.444-.003v.003c0 .28-.14.543-.407.784.327.293.407.582.407.787v2.105c0 1.023-1.842 1.794-4.286 1.794-2.432 0-4.267-.763-4.286-1.778L3.6 13.96v-2.11l.001-.004c0-.205.082-.49.405-.782-.322-.293-.404-.578-.405-.78V8.168c0-.204.083-.49.406-.782-.323-.293-.405-.577-.406-.78V4.487C3.611 3.467 5.45 2.7 7.888 2.7c1.173 0 2.301.193 3.093.53l-.172.416c-.739-.315-1.804-.495-2.921-.495-2.265 0-3.843.708-3.843 1.343 0 .636 1.578 1.343 3.843 1.343q.091 0 .18-.002l.019.45q-.1.004-.2.003c-1.73 0-3.156-.388-3.843-.977v1.293c.003.245.245.46.447.595.606.4 1.693.673 2.904.73l-.021.45c-1.226-.057-2.3-.32-2.99-.724-.173.133-.34.312-.34.518 0 .635 1.579 1.343 3.844 1.343q.335 0 .654-.023l.032.45a10 10 0 0 1-.686.024c-1.732 0-3.157-.388-3.844-.977v1.287c.003.251.244.465.447.6.693.458 1.995.743 3.397.743h.098v.451h-.098c-1.425 0-2.714-.275-3.504-.738-.173.133-.34.312-.34.518 0 .635 1.579 1.343 3.844 1.343 2.26 0 3.837-.705 3.842-1.34v-.004c0-.205-.165-.383-.337-.516q-.163.098-.36.184l-.172-.416q.244-.105.422-.224c.204-.138.447-.354.447-.598m2.38-3.76h-1.477a.22.22 0 0 1-.18-.094.23.23 0 0 1-.03-.204l.654-1.956H10.14L8.735 6.97h1.426a.22.22 0 0 1 .176.089.23.23 0 0 1 .038.196l-1.223 4.548zm.68-.07-5.922 6.312a.22.22 0 0 1-.27.04.23.23 0 0 1-.106-.255l1.379-5.125H8.367a.22.22 0 0 1-.19-.11.23.23 0 0 1-.007-.22L9.81 3.934a.22.22 0 0 1 .196-.12h3.382c.072 0 .139.035.18.094a.23.23 0 0 1 .03.204l-.654 1.956h1.685c.09 0 .17.054.204.137a.23.23 0 0 1-.043.244M4.377 13.968c.257.15.572.282.935.392l.127-.432c-.33-.1-.613-.218-.841-.35zm.935-3.254.127-.432c-.33-.1-.613-.218-.841-.351l-.221.391q.389.227.935.392m-.935-4.038.22-.391q.344.2.842.351l-.127.432a4.4 4.4 0 0 1-.935-.392" clip-rule="evenodd"/></g><defs><linearGradient id="b" x1="0" x2="18" y1="18" y2="0" gradientUnits="userSpaceOnUse"><stop stop-color="#2E27AD"/><stop offset="1" stop-color="#527FFF"/></linearGradient><clipPath id="a"><path fill="#fff" d="M0 0h18v18H0z"/></clipPath></defs></svg>
